flaticon/programming-line/programming.svg

<svg xmlns="http://www.w3.org/2000/svg" width="32" height="32" viewBox="0 0 24 24">
    <path d="M1.855469 4.835938C1.949219 4.835938 2.039062 4.800781 2.105469 4.734375 2.167969 4.667969 2.207031 4.578125 2.207031 4.484375 2.207031 4.394531 2.167969 4.300781 2.105469 4.238281 2.039062 4.171875 1.949219 4.132812 1.855469 4.132812 1.761719 4.132812 1.671875 4.171875 1.605469 4.238281 1.539062 4.300781 1.503906 4.394531 1.503906 4.484375 1.503906 4.578125 1.539062 4.667969 1.605469 4.734375 1.671875 4.800781 1.761719 4.835938 1.855469 4.835938zM2.980469 4.835938C3.074219 4.835938 3.167969 4.800781 3.230469 4.734375 3.296875 4.667969 3.335938 4.578125 3.335938 4.484375 3.335938 4.394531 3.296875 4.300781 3.230469 4.238281 3.167969 4.171875 3.074219 4.132812 2.980469 4.132812 2.890625 4.132812 2.796875 4.171875 2.734375 4.238281 2.667969 4.300781 2.628906 4.394531 2.628906 4.484375 2.628906 4.578125 2.667969 4.667969 2.734375 4.734375 2.796875 4.800781 2.890625 4.835938 2.980469 4.835938zM4.109375 4.835938C4.203125 4.835938 4.292969 4.800781 4.359375 4.734375 4.425781 4.667969 4.460938 4.578125 4.460938 4.484375 4.460938 4.394531 4.425781 4.300781 4.359375 4.238281 4.292969 4.171875 4.203125 4.132812 4.109375 4.132812 4.015625 4.132812 3.925781 4.171875 3.859375 4.238281 3.792969 4.300781 3.757812 4.394531 3.757812 4.484375 3.757812 4.578125 3.792969 4.667969 3.859375 4.734375 3.925781 4.800781 4.015625 4.835938 4.109375 4.835938zM21.394531 4.835938L22.144531 4.835938C22.339844 4.835938 22.496094 4.679688 22.496094 4.484375 22.496094 4.289062 22.339844 4.132812 22.144531 4.132812L21.394531 4.132812C21.199219 4.132812 21.042969 4.289062 21.042969 4.484375 21.042969 4.679688 21.199219 4.835938 21.394531 4.835938zM20.640625 14.652344L16.882812 14.652344C16.277344 14.652344 15.78125 15.148438 15.78125 15.757812L15.78125 18.386719C15.78125 18.996094 16.277344 19.492188 16.882812 19.492188L20.640625 19.492188C21.25 19.492188 21.746094 18.996094 21.746094 18.386719L21.746094 15.757812C21.746094 15.148438 21.25 14.652344 20.640625 14.652344zM21.042969 18.386719C21.042969 18.609375 20.863281 18.785156 20.640625 18.785156L16.882812 18.785156C16.664062 18.785156 16.484375 18.609375 16.484375 18.386719L16.484375 15.757812C16.484375 15.539062 16.664062 15.359375 16.882812 15.359375L20.640625 15.359375C20.863281 15.359375 21.042969 15.539062 21.042969 15.757812zM16.882812 10.847656C17.492188 10.847656 17.988281 10.355469 17.988281 9.746094 17.988281 9.136719 17.492188 8.640625 16.882812 8.640625 16.277344 8.640625 15.78125 9.136719 15.78125 9.746094 15.78125 10.355469 16.277344 10.847656 16.882812 10.847656zM16.882812 9.347656C17.105469 9.347656 17.285156 9.527344 17.285156 9.746094 17.285156 9.964844 17.105469 10.144531 16.882812 10.144531 16.664062 10.144531 16.484375 9.964844 16.484375 9.746094 16.484375 9.527344 16.664062 9.347656 16.882812 9.347656zM16.882812 9.347656"/>
    <path d="M19.890625 16.15625L17.636719 16.15625C17.441406 16.15625 17.285156 16.3125 17.285156 16.507812 17.285156 16.703125 17.441406 16.859375 17.636719 16.859375L19.890625 16.859375C20.085938 16.859375 20.242188 16.703125 20.242188 16.507812 20.242188 16.3125 20.085938 16.15625 19.890625 16.15625zM18.761719 17.285156L17.636719 17.285156C17.441406 17.285156 17.285156 17.441406 17.285156 17.636719 17.285156 17.832031 17.441406 17.988281 17.636719 17.988281L18.761719 17.988281C18.957031 17.988281 19.117188 17.832031 19.117188 17.636719 19.117188 17.441406 18.957031 17.285156 18.761719 17.285156zM1.855469 8.21875L2.605469 8.21875C2.800781 8.21875 2.957031 8.0625 2.957031 7.867188 2.957031 7.671875 2.800781 7.515625 2.605469 7.515625L1.855469 7.515625C1.660156 7.515625 1.503906 7.671875 1.503906 7.867188 1.503906 8.0625 1.660156 8.21875 1.855469 8.21875zM1.855469 10.097656L2.605469 10.097656C2.800781 10.097656 2.957031 9.941406 2.957031 9.746094 2.957031 9.550781 2.800781 9.394531 2.605469 9.394531L1.855469 9.394531C1.660156 9.394531 1.503906 9.550781 1.503906 9.746094 1.503906 9.941406 1.660156 10.097656 1.855469 10.097656zM2.980469 11.273438L2.605469 11.273438C2.414062 11.273438 2.253906 11.429688 2.253906 11.625 2.253906 11.820312 2.414062 11.976562 2.605469 11.976562L2.980469 11.976562C3.175781 11.976562 3.335938 11.820312 3.335938 11.625 3.335938 11.429688 3.175781 11.273438 2.980469 11.273438zM1.855469 13.855469L2.605469 13.855469C2.800781 13.855469 2.957031 13.699219 2.957031 13.503906 2.957031 13.308594 2.800781 13.152344 2.605469 13.152344L1.855469 13.152344C1.660156 13.152344 1.503906 13.308594 1.503906 13.503906 1.503906 13.699219 1.660156 13.855469 1.855469 13.855469zM4.109375 8.21875L5.613281 8.21875C5.808594 8.21875 5.964844 8.0625 5.964844 7.867188 5.964844 7.671875 5.808594 7.515625 5.613281 7.515625L4.109375 7.515625C3.914062 7.515625 3.757812 7.671875 3.757812 7.867188 3.757812 8.0625 3.914062 8.21875 4.109375 8.21875zM4.109375 13.855469L7.117188 13.855469C7.308594 13.855469 7.46875 13.699219 7.46875 13.503906 7.46875 13.308594 7.308594 13.152344 7.117188 13.152344L4.109375 13.152344C3.914062 13.152344 3.757812 13.308594 3.757812 13.503906 3.757812 13.699219 3.914062 13.855469 4.109375 13.855469zM4.109375 10.097656L7.867188 10.097656C8.0625 10.097656 8.21875 9.941406 8.21875 9.746094 8.21875 9.550781 8.0625 9.394531 7.867188 9.394531L4.109375 9.394531C3.914062 9.394531 3.757812 9.550781 3.757812 9.746094 3.757812 9.941406 3.914062 10.097656 4.109375 10.097656zM4.484375 11.273438C4.289062 11.273438 4.132812 11.429688 4.132812 11.625 4.132812 11.820312 4.289062 11.976562 4.484375 11.976562L5.988281 11.976562C6.183594 11.976562 6.339844 11.820312 6.339844 11.625 6.339844 11.429688 6.183594 11.273438 5.988281 11.273438zM8.96875 11.625C8.96875 11.429688 8.8125 11.273438 8.617188 11.273438L7.492188 11.273438C7.296875 11.273438 7.140625 11.429688 7.140625 11.625 7.140625 11.820312 7.296875 11.976562 7.492188 11.976562L8.617188 11.976562C8.8125 11.976562 8.96875 11.820312 8.96875 11.625zM10.121094 11.273438C10.027344 11.273438 9.9375 11.308594 9.871094 11.375 9.808594 11.441406 9.769531 11.53125 9.769531 11.625 9.769531 11.714844 9.808594 11.808594 9.871094 11.875 9.9375 11.9375 10.027344 11.976562 10.121094 11.976562 10.214844 11.976562 10.304688 11.9375 10.371094 11.875 10.4375 11.808594 10.472656 11.714844 10.472656 11.625 10.472656 11.53125 10.4375 11.441406 10.371094 11.375 10.304688 11.308594 10.214844 11.273438 10.121094 11.273438zM9.121094 15.132812C9.054688 15.199219 9.019531 15.289062 9.019531 15.382812 9.019531 15.472656 9.054688 15.566406 9.121094 15.628906 9.1875 15.695312 9.277344 15.734375 9.371094 15.734375 9.460938 15.734375 9.554688 15.695312 9.617188 15.628906 9.683594 15.566406 9.722656 15.472656 9.722656 15.382812 9.722656 15.289062 9.683594 15.199219 9.617188 15.132812 9.554688 15.066406 9.460938 15.03125 9.371094 15.03125 9.277344 15.03125 9.1875 15.066406 9.121094 15.132812zM2.980469 15.03125L2.605469 15.03125C2.414062 15.03125 2.253906 15.1875 2.253906 15.382812 2.253906 15.574219 2.414062 15.734375 2.605469 15.734375L2.980469 15.734375C3.175781 15.734375 3.335938 15.574219 3.335938 15.382812 3.335938 15.1875 3.175781 15.03125 2.980469 15.03125zM8.21875 15.382812C8.21875 15.1875 8.0625 15.03125 7.867188 15.03125L4.484375 15.03125C4.289062 15.03125 4.132812 15.1875 4.132812 15.382812 4.132812 15.574219 4.289062 15.734375 4.484375 15.734375L7.867188 15.734375C8.0625 15.734375 8.21875 15.574219 8.21875 15.382812zM2.980469 16.90625L2.605469 16.90625C2.414062 16.90625 2.253906 17.066406 2.253906 17.261719 2.253906 17.453125 2.414062 17.613281 2.605469 17.613281L2.980469 17.613281C3.175781 17.613281 3.335938 17.453125 3.335938 17.261719 3.335938 17.066406 3.175781 16.90625 2.980469 16.90625zM4.484375 16.90625C4.289062 16.90625 4.132812 17.066406 4.132812 17.261719 4.132812 17.453125 4.289062 17.613281 4.484375 17.613281L6.738281 17.613281C6.933594 17.613281 7.09375 17.453125 7.09375 17.261719 7.09375 17.066406 6.933594 16.90625 6.738281 16.90625zM9.722656 17.261719C9.722656 17.066406 9.5625 16.90625 9.371094 16.90625L8.242188 16.90625C8.046875 16.90625 7.890625 17.066406 7.890625 17.261719 7.890625 17.453125 8.046875 17.613281 8.242188 17.613281L9.371094 17.613281C9.5625 17.613281 9.722656 17.453125 9.722656 17.261719zM2.605469 18.785156L1.855469 18.785156C1.660156 18.785156 1.503906 18.945312 1.503906 19.140625 1.503906 19.332031 1.660156 19.492188 1.855469 19.492188L2.605469 19.492188C2.800781 19.492188 2.957031 19.332031 2.957031 19.140625 2.957031 18.945312 2.800781 18.785156 2.605469 18.785156zM5.238281 18.785156L4.109375 18.785156C3.914062 18.785156 3.757812 18.945312 3.757812 19.140625 3.757812 19.332031 3.914062 19.492188 4.109375 19.492188L5.238281 19.492188C5.429688 19.492188 5.589844 19.332031 5.589844 19.140625 5.589844 18.945312 5.429688 18.785156 5.238281 18.785156zM10.496094 18.785156L9.746094 18.785156C9.550781 18.785156 9.394531 18.945312 9.394531 19.140625 9.394531 19.332031 9.550781 19.492188 9.746094 19.492188L10.496094 19.492188C10.691406 19.492188 10.847656 19.332031 10.847656 19.140625 10.847656 18.945312 10.691406 18.785156 10.496094 18.785156zM7.117188 8.21875L10.121094 8.21875C10.316406 8.21875 10.472656 8.0625 10.472656 7.867188 10.472656 7.671875 10.316406 7.515625 10.121094 7.515625L7.117188 7.515625C6.921875 7.515625 6.761719 7.671875 6.761719 7.867188 6.761719 8.0625 6.921875 8.21875 7.117188 8.21875zM8.242188 18.785156L6.738281 18.785156C6.546875 18.785156 6.386719 18.945312 6.386719 19.140625 6.386719 19.332031 6.546875 19.492188 6.738281 19.492188L8.242188 19.492188C8.4375 19.492188 8.59375 19.332031 8.59375 19.140625 8.59375 18.945312 8.4375 18.785156 8.242188 18.785156zM8.242188 18.785156"/>
    <path d="M 22.144531 2.628906 L 12.351562 2.628906 L 12.351562 1.855469 C 12.351562 1.660156 12.195312 1.503906 12 1.503906 C 11.804688 1.503906 11.648438 1.660156 11.648438 1.855469 L 11.648438 2.628906 L 1.855469 2.628906 C 0.832031 2.628906 0 3.460938 0 4.484375 L 0 19.515625 C 0 20.539062 0.832031 21.371094 1.855469 21.371094 L 11.648438 21.371094 L 11.648438 22.144531 C 11.648438 22.339844 11.804688 22.496094 12 22.496094 C 12.195312 22.496094 12.351562 22.339844 12.351562 22.144531 L 12.351562 21.371094 L 22.144531 21.371094 C 23.167969 21.371094 24 20.539062 24 19.515625 L 24 4.484375 C 24 3.460938 23.167969 2.628906 22.144531 2.628906 Z M 22.144531 3.335938 C 22.777344 3.335938 23.296875 3.851562 23.296875 4.484375 L 23.296875 5.636719 L 12.351562 5.636719 L 12.351562 4.835938 L 19.890625 4.835938 C 20.085938 4.835938 20.242188 4.679688 20.242188 4.484375 C 20.242188 4.289062 20.085938 4.132812 19.890625 4.132812 L 12.351562 4.132812 L 12.351562 3.335938 Z M 1.855469 3.335938 L 11.648438 3.335938 L 11.648438 4.132812 L 5.613281 4.132812 C 5.417969 4.132812 5.261719 4.289062 5.261719 4.484375 C 5.261719 4.679688 5.417969 4.835938 5.613281 4.835938 L 11.648438 4.835938 L 11.648438 5.636719 L 0.703125 5.636719 L 0.703125 4.484375 C 0.703125 3.851562 1.222656 3.335938 1.855469 3.335938 Z M 1.855469 20.664062 C 1.222656 20.664062 0.703125 20.148438 0.703125 19.515625 L 0.703125 6.339844 L 11.648438 6.339844 L 11.648438 20.664062 Z M 12.351562 15.359375 L 13.878906 15.359375 C 14.097656 15.359375 14.277344 15.539062 14.277344 15.757812 L 14.277344 18.386719 C 14.277344 18.609375 14.097656 18.785156 13.878906 18.785156 L 12.351562 18.785156 Z M 12.351562 12.898438 L 14.628906 10.621094 L 16.636719 12.625 C 16.773438 12.761719 16.996094 12.761719 17.132812 12.625 L 21.042969 8.71875 L 21.042969 12.75 C 21.042969 12.972656 20.863281 13.152344 20.640625 13.152344 L 12.351562 13.152344 Z M 16.882812 11.878906 L 14.878906 9.871094 C 14.742188 9.734375 14.519531 9.734375 14.382812 9.871094 L 12.351562 11.902344 L 12.351562 8.21875 L 20.542969 8.21875 Z M 22.144531 20.664062 L 12.351562 20.664062 L 12.351562 19.492188 L 13.878906 19.492188 C 14.488281 19.492188 14.980469 18.996094 14.980469 18.386719 L 14.980469 15.757812 C 14.980469 15.148438 14.488281 14.652344 13.878906 14.652344 L 12.351562 14.652344 L 12.351562 13.855469 L 20.640625 13.855469 C 21.25 13.855469 21.746094 13.359375 21.746094 12.75 L 21.746094 8.617188 C 21.746094 8.011719 21.25 7.515625 20.640625 7.515625 L 12.351562 7.515625 L 12.351562 6.339844 L 23.296875 6.339844 L 23.296875 19.515625 C 23.296875 20.148438 22.777344 20.664062 22.144531 20.664062 Z M 22.144531 20.664062"/>
</svg>

<svg xmlns="http://www.w3.org/2000/svg" width="32" height="32" viewBox="0 0 24 24">
    <path d="M1.855 4.836a.351.351 0 0 0 .25-.102.369.369 0 0 0 .102-.25.355.355 0 0 0-.352-.352.355.355 0 0 0-.351.352c0 .094.035.184.101.25a.351.351 0 0 0 .25.102zm0 0M2.98 4.836a.355.355 0 0 0 .355-.352c0-.09-.038-.183-.105-.246a.346.346 0 0 0-.496 0 .346.346 0 0 0 0 .496.342.342 0 0 0 .246.102zm0 0M4.11 4.836a.351.351 0 0 0 .25-.102.351.351 0 0 0 .1-.25.355.355 0 0 0-.352-.352.355.355 0 0 0-.35.352c0 .094.035.184.101.25a.351.351 0 0 0 .25.102zm0 0M21.395 4.836h.75a.35.35 0 0 0 .351-.352.35.35 0 0 0-.351-.351h-.75a.35.35 0 0 0-.352.351.35.35 0 0 0 .352.352zm0 0M20.64 14.652h-3.757c-.606 0-1.102.496-1.102 1.106v2.629c0 .61.496 1.105 1.102 1.105h3.758c.609 0 1.105-.496 1.105-1.105v-2.63c0-.609-.496-1.105-1.105-1.105zm.403 3.735c0 .222-.18.398-.402.398h-3.758a.398.398 0 0 1-.399-.398v-2.63a.4.4 0 0 1 .399-.398h3.758c.222 0 .402.18.402.399zm0 0M16.883 10.848a1.104 1.104 0 1 0 .004-2.208 1.104 1.104 0 0 0-.004 2.208zm0-1.5c.222 0 .402.18.402.398a.401.401 0 0 1-.8 0 .4.4 0 0 1 .398-.398zm0 0"/>
    <path d="M19.89 16.156h-2.253a.35.35 0 0 0-.352.352.35.35 0 0 0 .352.351h2.254a.35.35 0 0 0 .351-.351.35.35 0 0 0-.351-.352zm0 0M18.762 17.285h-1.125a.35.35 0 0 0-.352.352.35.35 0 0 0 .352.351h1.125a.353.353 0 0 0 .355-.351.353.353 0 0 0-.355-.352zm0 0M1.855 8.219h.75a.35.35 0 0 0 .352-.352.35.35 0 0 0-.352-.351h-.75a.35.35 0 0 0-.351.351.35.35 0 0 0 .351.352zm0 0M1.855 10.098h.75a.35.35 0 0 0 .352-.352.35.35 0 0 0-.352-.351h-.75a.35.35 0 0 0-.351.351.35.35 0 0 0 .351.352zm0 0M2.98 11.273h-.375a.353.353 0 0 0-.351.352c0 .195.16.352.351.352h.375a.353.353 0 0 0 .356-.352.353.353 0 0 0-.356-.352zm0 0M1.855 13.855h.75a.35.35 0 0 0 .352-.351.35.35 0 0 0-.352-.352h-.75a.35.35 0 0 0-.351.352.35.35 0 0 0 .351.351zm0 0M4.11 8.219h1.503a.35.35 0 0 0 .352-.352.35.35 0 0 0-.352-.351H4.11a.35.35 0 0 0-.351.351.35.35 0 0 0 .351.352zm0 0M4.11 13.855h3.007a.353.353 0 0 0 .352-.351.353.353 0 0 0-.352-.352H4.11a.35.35 0 0 0-.351.352.35.35 0 0 0 .351.351zm0 0M4.11 10.098h3.757a.35.35 0 0 0 .352-.352.35.35 0 0 0-.352-.351H4.11a.35.35 0 0 0-.351.351.35.35 0 0 0 .351.352zm0 0M4.484 11.273a.35.35 0 0 0-.351.352.35.35 0 0 0 .351.352h1.504a.35.35 0 0 0 .352-.352.35.35 0 0 0-.352-.352zm0 0M8.969 11.625a.35.35 0 0 0-.352-.352H7.492a.35.35 0 0 0-.351.352.35.35 0 0 0 .351.352h1.125a.35.35 0 0 0 .352-.352zm0 0M10.121 11.273a.351.351 0 0 0-.25.102.369.369 0 0 0-.101.25c0 .09.039.184.101.25a.369.369 0 0 0 .25.102c.094 0 .184-.04.25-.102a.358.358 0 0 0 0-.5.351.351 0 0 0-.25-.102zm0 0M9.121 15.133a.351.351 0 0 0-.101.25.355.355 0 0 0 .352.352c.089 0 .183-.04.245-.106a.346.346 0 0 0 0-.496.342.342 0 0 0-.246-.102.351.351 0 0 0-.25.102zm0 0M2.98 15.031h-.375a.353.353 0 0 0-.351.352c0 .191.16.351.351.351h.375c.196 0 .356-.16.356-.351a.353.353 0 0 0-.356-.352zm0 0M8.219 15.383a.35.35 0 0 0-.352-.352H4.484a.35.35 0 0 0-.351.352c0 .191.156.351.351.351h3.383c.196 0 .352-.16.352-.351zm0 0M2.98 16.906h-.375a.356.356 0 0 0-.351.356c0 .191.16.351.351.351h.375c.196 0 .356-.16.356-.351a.357.357 0 0 0-.356-.356zm0 0M4.484 16.906a.353.353 0 0 0 0 .707h2.254c.196 0 .356-.16.356-.351a.357.357 0 0 0-.356-.356zm0 0M9.723 17.262a.356.356 0 0 0-.352-.356H8.242a.353.353 0 0 0 0 .707h1.13c.19 0 .35-.16.35-.351zm0 0M2.605 18.785h-.75a.353.353 0 0 0 0 .707h.75a.353.353 0 0 0 0-.707zm0 0M5.238 18.785H4.11a.353.353 0 0 0 0 .707h1.13c.19 0 .35-.16.35-.351a.356.356 0 0 0-.35-.356zm0 0M10.496 18.785h-.75a.353.353 0 0 0 0 .707h.75a.353.353 0 0 0 0-.707zm0 0M7.117 8.219h3.004a.35.35 0 0 0 .352-.352.35.35 0 0 0-.352-.351H7.117a.353.353 0 0 0-.355.351c0 .196.16.352.355.352zm0 0M8.242 18.785H6.738a.356.356 0 0 0-.351.356c0 .191.16.351.351.351h1.504a.353.353 0 0 0 0-.707zm0 0"/>
    <path d="M22.145 2.629h-9.793v-.774A.35.35 0 0 0 12 1.504a.35.35 0 0 0-.352.351v.774H1.855A1.857 1.857 0 0 0 0 4.484v15.032c0 1.023.832 1.855 1.855 1.855h9.793v.774a.35.35 0 0 0 .352.351.35.35 0 0 0 .352-.351v-.774h9.793A1.857 1.857 0 0 0 24 19.516V4.484a1.857 1.857 0 0 0-1.855-1.855zm0 .707c.632 0 1.152.516 1.152 1.148v1.153H12.352v-.801h7.539a.35.35 0 0 0 .351-.352.35.35 0 0 0-.351-.351h-7.54v-.797zm-20.29 0h9.793v.797H5.613a.35.35 0 0 0-.351.351.35.35 0 0 0 .351.352h6.035v.8H.703V4.485c0-.632.52-1.148 1.152-1.148zm0 17.328a1.154 1.154 0 0 1-1.152-1.148V6.34h10.945v14.324zm10.497-5.305h1.527a.4.4 0 0 1 .398.399v2.629c0 .222-.18.398-.398.398h-1.527zm0-2.46l2.277-2.278 2.008 2.004c.136.137.36.137.496 0l3.91-3.906v4.031c0 .223-.18.402-.402.402h-8.29zm4.53-1.02L14.88 9.87a.351.351 0 0 0-.496 0l-2.031 2.031V8.22h8.191zm5.263 8.785h-9.793v-1.172h1.527c.61 0 1.101-.496 1.101-1.105v-2.63c0-.609-.492-1.105-1.101-1.105h-1.527v-.797h8.289c.609 0 1.105-.496 1.105-1.105V8.617c0-.605-.496-1.101-1.105-1.101h-8.29V6.34h10.946v13.176c0 .632-.52 1.148-1.152 1.148zm0 0"/>
</svg>
